X:4140
L:1/8
M:6/8
K:D
 d | BAA/F/ GF (3F/E/D/ | EDD D2 A | AB F/E/ F>GA | A/d/dc/A/ A2 || A, | DD/E/F/G/ AFA/c/ | 
 Bdd{d} f2 (3d/c/B/ | BAA/F/ GFE/D/ | EDD D2 ||

